!!!!SEGMENT: pl-kk--kk-i-6--057_anonim--deo-gratias.krn
!!!cenid: 16xx:1053
!!!COM: Anonim
!!!COM-rismid: pe30004985
!!!CDT:
!!!CNT:
!!!OTL: Deo gratias
!!!PDT:
!!!AGN:
!!!SMS-siglum: PL-Kk
!!!SMS-shelfmark: Kk.I.6
!!!SMS-shelfwork: 057 W
!!!SMS-variant:
!!!SMS-altvar:
!!!NIFC-rismid: 1001136564
!!!URL-scan: http://repozytorium.nifc.pl/skany/pl-kk-nut--i-6
!!!ONB-nifc: UWAGA: C (skan 0087, s. 170), T (skan 0198, s. 200), B (skan 0311, s. 204) Infra Octavas et in votivis
**kern	**text	**kern	**text	**kern	**text
*part3	*part3	*part2	*part2	*part1	*part1
*staff3	*staff3	*staff2	*staff2	*staff1	*staff1
*I"Baſsus.	*	*I"Tenor.	*	*I"Cantus.	*
*I'B	*	*I'T	*	*I'S	*
*clefF4	*	*clefC4	*	*clefC4	*
*k[]	*	*k[]	*	*k[]	*
*g:	*	*g:	*	*g:	*
*M2/1	*	*M2/1	*	*M2/1	*
*met(C|)	*	*met(C|)	*	*met(C|)	*
=1-	=1-	=1-	=1-	=1-	=1-
!!LO:TX:t=P:problem:2\ center:global
!!LO:TX:t=P:problem:4\ left:global
!LO:TX:t=P:problem:kreska pseudotaktowa	!	!	!	!	!
!	!	!LO:TX:t=P:problem:kreska pseudotaktowa	!	!	!
1G	De-	1Bn	De-	1G	De-
*	*	*	*	*lig	*
2E\	-o	2c\	-o	1G	-o
2.G\	.	4B\	.	.	.
!	!	!LO:TX:t=P:problem:kreska pseudotaktowa	!	!	!
.	.	4A/	.	.	.
=2-	=2-	=2-	=2-	=2-	=2-
!	!	!LO:TX:t=P:problem:kreska pseudotaktowa	!	!	!
.	.	1G	.	1E	.
4F\	.	.	.	.	.
4E\	.	.	.	.	.
!LO:TX:t=P:problem:kreska pseudotaktowa	!	!	!	!	!
4D/	.	.	.	.	.
*	*	*	*	*Xlig	*
2C/	.	2A/	.	1G	.
2E\	.	1G	.	.	.
=3-	=3-	=3-	=3-	=3-	=3-
*	*	*	*	*lig	*
2.D/	gra-	.	.	1Fn	.
!	!	!LO:TX:t=P:problem:kreska pseudotaktowa	!	!	!
.	.	2Fn/	.	.	.
!LO:TX:t=P:problem:kreska pseudotaktowa	!	!	!	!	!
4D/	-ti-	.	.	.	.
!LO:SIC:v:t=custos D	!	!	!	!	!
1AA	-as	2E/	gra-	1E	.
!	!	!LO:TX:t=P:problem:kreska pseudotaktowa	!	!	!
.	.	2A/	-ti-	.	.
*	*	*	*	*Xlig	*
=4-	=4-	=4-	=4-	=4-	=4-
*	*	*	*	*lig	*
!	!	!LO:TX:t=P:problem:kreska pseudotaktowa	!	!	!
!LO:LB:g=original	!	!LO:LB:g=original	!	!	!
1D	DE-	1A	-as	1F	.
*	*	*	*ij	*	*
!	!	!	!	!LO:TX:t=P:problem:kreska pseudotaktowa	!
2.GG/	-O	2.B\	De-	1D	.
4AA/	.	4c\	-o	.	.
*	*	*	*	*Xlig	*
=5-	=5-	=5-	=5-	=5-	=5-
2BBn/	.	2.d\	gra-	0F	gra-
!LO:TX:t=P:problem:kreska pseudotaktowa	!	!	!	!	!
2GG	.	.	.	.	.
!	!	!LO:TX:t=P:problem:kreska pseudotaktowa	!	!	!
.	.	4d\	-ti-	.	.
1D	.	2d,<	-as	.	.
*	*	*	*Xij	*	*
.	.	1d	De-	.	.
=6-	=6-	=6-	=6-	=6-	=6-
!	!	!	!	!LO:SIC:v:t=custos F	!
1AA	gra-	.	.	1E	.
.	.	2c\	-o	.	.
!	!	!	!	!LO:LB:g=original	!
2.D/	-ti-	2.d\	gra-	2.F#X/	-ti-
4D/	-as	4d\	-ti-	4F#/	-as.
=7-	=7-	=7-	=7-	=7-	=7-
0GG;;	.	0d;;	-as	0G;;	.
=-	=-	=-	=-	=-	=-
*-	*-	*-	*-	*-	*-
!!!system-decoration: [(s1,s2,s3)]
!!!RDF**kern: < = below
!!!RDF**kern: > = above
!!!ENC: Filip Voros
!!!END: 2021-10-25
!!!ENC: Marta Chmielewska
!!!END: 2021-10-28
